X: 1391
T: Lakum Vela'amod
C: Yair Gor 1989
F: https://www.youtube.com/watch?v=9EJzqKjN__w
F: https://www.youtube.com/watch?v=AUC3EUHAhwE
F: https://www.youtube.com/watch?v=YZ45xr228Bk
M: 4/4
L: 1/8
K: Fm
Q:1/4 = 180
"Fm"zcc2 c2c4|z2d2c2c2|"Bbm"zcd2c2B2|"Fm"G2A4z2|
"Bbm"dd2B d2B2|"Eb"g4z4|e2c2 e2d2|"Fm"c4z4|
"Fm"zcc2 c2z2|"Bbm"z2d2B2d2|"Eb"z2=e2e2e2|"Fm"f4z2c2|
"Fm"f2d2f3z|"Eb"e2c2e3z|"Fm"c2c2c2=E2|F4z4|


